;FLAVOR:Marlin
;TIME:3664
;Filament used: 5.13237m
;Layer height: 0.28
;MINX:80.59
;MINY:65.884
;MINZ:0.3
;MAXX:239.396
;MAXY:254.119
;MAXZ:14.86
;Generated with Cura_SteamEngine 4.3.0
M140 S60
M105
M190 S60
M104 S200
M105
M109 S200
M82 ;absolute extrusion mode
G28 ;Home
G1 Z15.0 F6000 ;Move the platform down 15mm
G92 E0
G1 F200 E3
G92 E0
G92 E0
G92 E0
G1 F1800 E-2.5
;LAYER_COUNT:53
;LAYER:0
M107
G0 F3600 X110.578 Y79.181 Z0.3
;TYPE:SKIRT
G1 F1800 E0
G1 X111.008 Y78.609 E0.0357
G1 X111.643 Y77.935 E0.0819
G1 X111.684 Y77.892 E0.08486
G1 X121.609 Y67.739 E0.79322
G1 X121.642 Y67.706 E0.79554
G1 X122.093 Y67.258 E0.82726
G1 X122.225 Y67.133 E0.83633
G1 X122.445 Y66.938 E0.851
G1 X122.849 Y66.634 E0.87622
G1 X123.153 Y66.463 E0.89362
G1 X123.575 Y66.255 E0.91709
G1 X124.045 Y66.068 E0.94233
G1 X124.634 Y65.945 E0.97235
G1 X125.027 Y65.901 E0.99208
G1 X125.532 Y65.884 E1.01729
G1 X126.059 Y65.953 E1.0438
G1 X126.563 Y66.062 E1.06953
G1 X126.915 Y66.16 E1.08776
G1 X127.902 Y66.495 E1.13976
G1 X127.948 Y66.51 E1.14217
G1 X128.835 Y66.826 E1.18915
G1 X131.426 Y67.667 E1.32506
G1 X134.063 Y68.44 E1.46215
G1 X136.717 Y69.138 E1.59906
G1 X139.403 Y69.765 E1.73667
G1 X142.029 Y70.297 E1.87034
G1 X144.753 Y70.771 E2.00829
G1 X147.453 Y71.162 E2.1444
G1 X150.187 Y71.481 E2.28172
G1 X152.931 Y71.721 E2.41914
G1 X155.644 Y71.882 E2.55473
G1 X158.358 Y71.965 E2.6902
G1 X161.114 Y71.972 E2.8277
G1 X163.864 Y71.902 E2.96494
G1 X166.582 Y71.755 E3.10074
G1 X169.317 Y71.53 E3.23765
G1 X172.033 Y71.227 E3.37399
G1 X174.745 Y70.849 E3.5106
G1 X177.44 Y70.393 E3.64697
G1 X180.135 Y69.86 E3.78402
G1 X182.785 Y69.257 E3.91961
G1 X185.437 Y68.576 E4.05621
G1 X188.081 Y67.814 E4.19349
G1 X190.697 Y66.98 E4.33048
G1 X191.705 Y66.623 E4.38383
G1 X191.751 Y66.607 E4.38626
G1 X193.106 Y66.15 E4.4576
G1 X193.344 Y66.08 E4.46998
G1 X193.739 Y65.98 E4.49031
G1 X194.237 Y65.895 E4.51551
G1 X194.789 Y65.893 E4.54305
G1 X195.27 Y65.933 E4.56713
G1 X195.769 Y66.015 E4.59236
G1 X196.357 Y66.221 E4.62344
G1 X196.666 Y66.365 E4.64045
G1 X196.721 Y66.392 E4.64351
G1 X196.817 Y66.439 E4.64884
G1 X197.252 Y66.696 E4.67405
G1 X197.657 Y67.035 E4.7004
G1 X198.255 Y67.625 E4.74231
G1 X198.291 Y67.661 E4.74485
G1 X208.278 Y77.828 E5.45586
G1 X208.309 Y77.86 E5.45808
G1 X208.8 Y78.374 E5.49355
G1 X209.095 Y78.731 E5.51665
G1 X209.335 Y79.069 E5.53733
G1 X209.594 Y79.503 E5.56255
G1 X209.744 Y79.858 E5.58178
G1 X209.938 Y80.408 E5.61087
G1 X209.99 Y80.57 E5.61936
G1 X210.284 Y81.571 E5.67141
G1 X211.129 Y84.177 E5.80809
G1 X212.054 Y86.775 E5.94567
G1 X213.041 Y89.316 E6.08167
G1 X214.105 Y91.844 E6.21851
G1 X215.234 Y94.328 E6.35464
G1 X216.432 Y96.775 E6.49056
G1 X217.73 Y99.25 E6.62999
G1 X218.374 Y100.414 E6.69636
G1 X218.846 Y101.254 E6.74443
G1 X218.873 Y101.304 E6.74727
G1 X221.803 Y106.743 E7.05549
G1 X221.823 Y106.781 E7.05763
G1 X222.098 Y107.308 E7.08729
G1 X222.144 Y107.399 E7.09237
G1 X222.59 Y108.325 E7.14365
G1 X222.615 Y108.378 E7.14658
G1 X225.203 Y114.013 E7.45594
G1 X225.22 Y114.05 E7.45797
G1 X225.434 Y114.532 E7.48428
G1 X225.475 Y114.631 E7.48963
G1 X225.891 Y115.659 E7.54495
G1 X225.912 Y115.712 E7.5478
G1 X228.121 Y121.465 E7.85525
G1 X228.137 Y121.505 E7.8574
G1 X228.322 Y122.007 E7.88409
G1 X228.355 Y122.104 E7.8892
G1 X228.69 Y123.111 E7.94215
G1 X228.708 Y123.166 E7.94503
G1 X230.562 Y129.096 E8.25501
G1 X230.575 Y129.139 E8.25725
G1 X230.723 Y129.637 E8.28317
G1 X230.75 Y129.733 E8.28814
G1 X231.014 Y130.734 E8.33979
G1 X231.029 Y130.792 E8.34278
G1 X232.51 Y136.87 E8.65488
G1 X232.519 Y136.909 E8.65688
G1 X232.628 Y137.382 E8.6811
G1 X232.65 Y137.484 E8.6863
G1 X232.86 Y138.552 E8.7406
G1 X232.871 Y138.611 E8.7436
G1 X233.947 Y144.688 E9.0515
G1 X233.954 Y144.728 E9.05352
G1 X234.044 Y145.277 E9.08128
G1 X234.059 Y145.384 E9.08667
G1 X234.193 Y146.418 E9.13869
G1 X234.2 Y146.473 E9.14145
G1 X234.577 Y149.838 E9.31038
G1 X234.926 Y152.603 E9.44943
G1 X235.346 Y155.306 E9.5859
G1 X235.841 Y157.998 E9.72245
G1 X236.408 Y160.653 E9.8579
G1 X237.054 Y163.311 E9.99437
G1 X237.783 Y165.975 E10.13216
G1 X238.995 Y169.864 E10.33539
G1 X239.219 Y170.535 E10.37068
G1 X239.359 Y171.153 E10.40229
G1 X239.39 Y171.402 E10.41481
G1 X239.396 Y172.143 E10.45178
G1 X239.336 Y172.695 E10.47948
G1 X239.242 Y173.192 E10.50472
G1 X239.151 Y173.474 E10.5195
G1 X238.833 Y174.321 E10.56464
G1 X237.861 Y176.937 E10.70387
G1 X236.991 Y179.498 E10.83881
G1 X236.172 Y182.154 E10.97747
G1 X235.447 Y184.762 E11.11252
G1 X234.792 Y187.407 E11.24847
G1 X234.198 Y190.136 E11.38781
G1 X233.701 Y192.785 E11.52227
G1 X233.661 Y193.031 E11.53471
G1 X233.655 Y193.065 E11.53643
G1 X233.414 Y194.459 E11.60701
G1 X233.383 Y194.618 E11.61509
G1 X233.332 Y194.844 E11.62665
G1 X233.311 Y194.928 E11.63097
G1 X233.25 Y195.168 E11.64332
G1 X233.241 Y195.204 E11.64517
G1 X231.607 Y201.337 E11.96182
G1 X231.596 Y201.376 E11.96384
G1 X231.403 Y202.065 E11.99954
G1 X231.35 Y202.238 E12.00857
G1 X231.285 Y202.428 E12.01859
G1 X231.255 Y202.511 E12.02299
G1 X231.155 Y202.779 E12.03726
G1 X231.146 Y202.802 E12.03849
G1 X228.896 Y208.694 E12.35315
G1 X228.88 Y208.736 E12.35539
G1 X228.616 Y209.399 E12.391
G1 X228.546 Y209.562 E12.39985
G1 X228.456 Y209.756 E12.41052
G1 X228.422 Y209.826 E12.4144
G1 X228.297 Y210.079 E12.42848
G1 X228.281 Y210.111 E12.43026
G1 X225.403 Y215.78 E12.74745
G1 X225.385 Y215.816 E12.74946
G1 X225.089 Y216.381 E12.78128
G1 X225.005 Y216.53 E12.78981
G1 X224.885 Y216.732 E12.80153
G1 X224.834 Y216.816 E12.80644
G1 X224.694 Y217.036 E12.81945
G1 X224.68 Y217.057 E12.82071
G1 X221.225 Y222.395 E13.13794
G1 X221.2 Y222.433 E13.14021
G1 X220.818 Y223.005 E13.17452
G1 X220.69 Y223.183 E13.18546
G1 X220.396 Y223.564 E13.20947
G1 X220.353 Y223.619 E13.21295
G1 X216.38 Y228.541 E13.52853
G1 X216.349 Y228.578 E13.53094
G1 X215.902 Y229.115 E13.56579
G1 X215.788 Y229.245 E13.57442
G1 X214.88 Y230.223 E13.641
G1 X214.85 Y230.256 E13.64322
G1 X214.442 Y230.683 E13.67269
G1 X212.636 Y232.687 E13.80728
G1 X210.852 Y234.785 E13.94467
G1 X209.135 Y236.92 E14.08136
G1 X207.489 Y239.092 E14.21732
G1 X205.888 Y241.333 E14.35473
G1 X204.375 Y243.582 E14.48996
G1 X204.031 Y244.134 E14.52241
G1 X203.996 Y244.188 E14.52562
G1 X203.237 Y245.352 E14.59495
G1 X202.84 Y245.846 E14.62656
G1 X202.512 Y246.18 E14.64992
G1 X202.131 Y246.512 E14.67513
G1 X201.889 Y246.674 E14.68966
G1 X201.566 Y246.87 E14.70851
G1 X201.114 Y247.097 E14.73374
G1 X200.831 Y247.197 E14.74872
G1 X200.576 Y247.274 E14.76201
G1 X200.47 Y247.304 E14.7675
G1 X200.251 Y247.362 E14.77881
G1 X199.806 Y247.447 E14.80141
G1 X199.5 Y247.483 E14.81678
G1 X199.458 Y247.488 E14.81889
G1 X197.238 Y247.719 E14.93025
G1 X194.546 Y248.078 E15.06574
G1 X191.81 Y248.521 E15.20402
G1 X189.159 Y249.026 E15.33865
G1 X186.49 Y249.615 E15.47501
G1 X183.13 Y250.478 E15.64809
G1 X183.13 Y250.479 E15.64814
G1 X176.533 Y252.25 E15.98892
G1 X176.493 Y252.26 E15.99097
G1 X175.849 Y252.424 E16.02413
G1 X175.626 Y252.472 E16.03551
G1 X175.054 Y252.575 E16.0645
G1 X174.992 Y252.586 E16.06765
G1 X168.822 Y253.572 E16.37937
G1 X168.779 Y253.578 E16.38154
G1 X168.094 Y253.678 E16.41608
G1 X167.916 Y253.699 E16.42502
G1 X167.658 Y253.722 E16.43794
G1 X167.584 Y253.728 E16.44165
G1 X167.356 Y253.743 E16.45304
G1 X167.318 Y253.745 E16.45494
G1 X161.007 Y254.085 E16.77026
G1 X160.963 Y254.087 E16.77245
G1 X160.241 Y254.116 E16.8085
G1 X160.058 Y254.119 E16.81764
G1 X159.826 Y254.115 E16.82921
G1 X159.752 Y254.112 E16.83291
G1 X159.505 Y254.102 E16.84524
G1 X159.472 Y254.101 E16.84689
G1 X153.069 Y253.776 E17.16674
G1 X153.024 Y253.773 E17.16899
G1 X152.285 Y253.725 E17.20594
G1 X152.056 Y253.702 E17.21742
G1 X151.533 Y253.63 E17.24376
G1 X151.468 Y253.621 E17.24704
G1 X145.25 Y252.636 E17.56112
G1 X145.209 Y252.629 E17.5632
G1 X144.534 Y252.513 E17.59737
G1 X144.345 Y252.474 E17.60699
G1 X144.149 Y252.428 E17.61704
G1 X144.085 Y252.413 E17.62032
G1 X143.734 Y252.323 E17.6384
G1 X143.701 Y252.314 E17.6401
G1 X134.935 Y249.966 E18.09286
G1 X132.309 Y249.342 E18.22752
G1 X129.592 Y248.777 E18.36597
G1 X126.901 Y248.298 E18.50233
G1 X124.218 Y247.899 E18.63766
G1 X120.01 Y247.412 E18.849
G1 X119.285 Y247.241 E18.88616
G1 X118.952 Y247.12 E18.90384
G1 X118.492 Y246.91 E18.92907
G1 X118.261 Y246.768 E18.94259
G1 X118.063 Y246.635 E18.95449
G1 X117.965 Y246.567 E18.96045
G1 X117.756 Y246.415 E18.97334
G1 X117.208 Y245.91 E19.01052
G1 X117.022 Y245.693 E19.02478
G1 X116.768 Y245.352 E19.04599
G1 X116.184 Y244.453 E19.09947
G1 X114.653 Y242.127 E19.2384
G1 X113.082 Y239.882 E19.3751
G1 X111.449 Y237.682 E19.51179
G1 X109.755 Y235.53 E19.64843
G1 X108.009 Y233.438 E19.78438
G1 X106.19 Y231.378 E19.92148
G1 X104.813 Y229.912 E20.02182
G1 X104.791 Y229.888 E20.02345
G1 X104.287 Y229.34 E20.06059
G1 X104.219 Y229.264 E20.06568
G1 X104.075 Y229.097 E20.07668
G1 X104.033 Y229.048 E20.0799
G1 X103.845 Y228.821 E20.09461
G1 X103.823 Y228.794 E20.09634
G1 X99.852 Y223.89 E20.41116
G1 X99.826 Y223.857 E20.41326
G1 X99.394 Y223.309 E20.44807
G1 X99.256 Y223.121 E20.4597
G1 X98.953 Y222.673 E20.48669
G1 X98.92 Y222.622 E20.48972
G1 X95.527 Y217.395 E20.80062
G1 X95.505 Y217.362 E20.8026
G1 X95.104 Y216.727 E20.84007
G1 X95.009 Y216.566 E20.84939
G1 X94.899 Y216.367 E20.86074
G1 X94.862 Y216.298 E20.86464
G1 X94.751 Y216.085 E20.87662
G1 X94.738 Y216.059 E20.87807
G1 X91.856 Y210.404 E21.19473
G1 X91.835 Y210.362 E21.19707
G1 X91.529 Y209.739 E21.2317
G1 X91.437 Y209.534 E21.24291
G1 X91.256 Y209.089 E21.26688
G1 X91.233 Y209.03 E21.27004
G1 X88.964 Y203.12 E21.58587
G1 X88.946 Y203.074 E21.58834
G1 X88.699 Y202.4 E21.62415
G1 X88.628 Y202.181 E21.63564
G1 X88.49 Y201.7 E21.6606
G1 X88.475 Y201.646 E21.6634
G1 X86.854 Y195.598 E21.97578
G1 X86.842 Y195.551 E21.9782
G1 X86.658 Y194.82 E22.01581
G1 X86.621 Y194.656 E22.0242
G1 X86.577 Y194.432 E22.03559
G1 X86.563 Y194.353 E22.03959
G1 X86.43 Y193.573 E22.07907
G1 X86.042 Y191.363 E22.19101
G1 X85.5 Y188.698 E22.32669
G1 X84.873 Y186.005 E22.46464
G1 X84.169 Y183.33 E22.60264
G1 X83.41 Y180.747 E22.73695
G1 X82.558 Y178.121 E22.87469
G1 X81.458 Y175.056 E23.03715
G1 X80.852 Y173.452 E23.12269
G1 X80.697 Y172.889 E23.15183
G1 X80.636 Y172.55 E23.16901
G1 X80.59 Y171.813 E23.20585
G1 X80.605 Y171.531 E23.21994
G1 X80.663 Y171.068 E23.24322
G1 X80.733 Y170.721 E23.26088
G1 X80.826 Y170.367 E23.27914
G1 X81.403 Y168.587 E23.3725
G1 X82.224 Y165.889 E23.51319
G1 X82.931 Y163.307 E23.64675
G1 X83.589 Y160.607 E23.7854
G1 X84.156 Y157.944 E23.92123
G1 X84.652 Y155.257 E24.05755
G1 X85.071 Y152.554 E24.19402
G1 X85.436 Y149.648 E24.34014
G1 X85.782 Y146.504 E24.49794
G1 X85.788 Y146.456 E24.50035
G1 X85.849 Y145.969 E24.52484
G1 X85.863 Y145.872 E24.52973
G1 X86.023 Y144.85 E24.58134
G1 X86.032 Y144.792 E24.58427
G1 X87.105 Y138.672 E24.89425
G1 X87.113 Y138.627 E24.89653
G1 X87.215 Y138.091 E24.92375
G1 X87.236 Y137.993 E24.92875
G1 X87.469 Y136.948 E24.98217
G1 X87.482 Y136.891 E24.98508
G1 X88.943 Y130.853 E25.29501
G1 X88.953 Y130.811 E25.29717
G1 X89.081 Y130.312 E25.32287
G1 X89.109 Y130.212 E25.32805
G1 X89.393 Y129.237 E25.37872
G1 X89.409 Y129.183 E25.38153
G1 X91.269 Y123.194 E25.6944
G1 X91.283 Y123.15 E25.6967
G1 X91.439 Y122.672 E25.72178
G1 X91.472 Y122.575 E25.7269
G1 X91.822 Y121.609 E25.77816
G1 X91.841 Y121.558 E25.78087
G1 X94.064 Y115.735 E26.09183
G1 X94.082 Y115.69 E26.09425
G1 X94.282 Y115.189 E26.12116
G1 X94.32 Y115.098 E26.12608
G1 X94.731 Y114.154 E26.17745
G1 X94.755 Y114.1 E26.1804
G1 X97.349 Y108.426 E26.49165
G1 X97.366 Y108.388 E26.49373
G1 X97.586 Y107.923 E26.5194
G1 X97.633 Y107.83 E26.52459
G1 X98.12 Y106.882 E26.57777
G1 X98.147 Y106.831 E26.58065
G1 X101.074 Y101.378 E26.88941
G1 X101.094 Y101.34 E26.89155
G1 X101.847 Y99.982 E26.96902
G1 X103.16 Y97.534 E27.10761
G1 X104.393 Y95.069 E27.24512
G1 X105.532 Y92.622 E27.37978
G1 X106.632 Y90.074 E27.51824
G1 X107.647 Y87.53 E27.65489
G1 X108.584 Y84.964 E27.79117
G1 X109.451 Y82.367 E27.92777
G1 X110.017 Y80.53 E28.02367
G1 X110.095 Y80.305 E28.03555
G1 X110.357 Y79.636 E28.07139
G1 X110.578 Y79.181 E28.09663
G1 F1800 E25.59663
;MESH:top.stl(1)
G0 F3600 X113.03 Y82.948
G0 X114.261 Y83.512
G0 X115.557 Y83.162
G0 X117.436 Y81.28
G0 X117.01 Y79.892
G0 X123.067 Y80.814
G0 X119.599 Y84.457
G0 X114.711 Y90.376
G0 X110.359 Y96.488
G0 X106.408 Y102.946
G0 X102.899 Y109.699
G0 X99.879 Y116.685
G0 X97.359 Y123.867
G0 X95.351 Y131.207
G0 X93.867 Y138.672
G0 X92.914 Y146.224
G0 X92.497 Y153.816
G0 X92.485 Y177.083
G0 X99.244 Y189.579
G0 X108.187 Y200.489
G0 X119.036 Y209.506
G0 X131.396 Y216.303
G0 X144.821 Y220.636
G0 X158.822 Y222.346
G0 X172.895 Y221.371
G0 X186.527 Y217.748
G0 X199.226 Y211.606
G0 X210.531 Y203.169
G0 X220.032 Y192.743
G0 X227.439 Y180.59
G0 X227.516 Y179.135
G0 X227.516 Y154.045
G0 X227.115 Y146.451
G0 X226.178 Y138.897
G0 X224.709 Y131.428
G0 X222.717 Y124.084
G0 X220.213 Y116.896
G0 X217.206 Y109.903
G0 X213.711 Y103.142
G0 X210.147 Y97.292
G0 X198.95 Y80.708
G0 X199.045 Y80.736
;TYPE:WALL-INNER
G1 F1800 E28.09663
G1 X199.276 Y80.986 E28.11361
G1 X201.712 Y83.611 E28.29228
G1 X206.593 Y89.596 E28.67758
G1 X211.039 Y95.813 E29.0589
G1 X215.127 Y102.363 E29.4441
G1 X218.807 Y109.193 E29.83116
G1 X222.045 Y116.242 E30.21817
G1 X224.821 Y123.468 E30.60436
G1 X227.138 Y130.877 E30.99165
G1 X228.974 Y138.407 E31.37833
G1 X230.326 Y146.027 E31.76443
G1 X231.217 Y153.978 E32.16359
G1 X231.217 Y172.488 E33.08706
G1 X231.916 Y172.809 E33.12543
G1 X233.721 Y171.262 E33.24403
G1 X234.05 Y171.005 E33.26486
G1 X234.239 Y170.92 E33.2752
G1 X234.559 Y170.861 E33.29144
G1 X234.939 Y170.92 E33.31062
G1 X235.1 Y170.996 E33.3195
G1 X235.378 Y171.223 E33.33741
G1 X235.485 Y171.373 E33.3466
G1 X235.609 Y171.697 E33.36391
G1 X235.63 Y171.887 E33.37345
G1 X235.575 Y172.233 E33.39092
G1 X235.5 Y172.406 E33.40033
G1 X235.268 Y172.696 E33.41886
G1 X231.217 Y176.177 E33.68533
G1 X231.217 Y178.876 E33.81999
G1 X230.834 Y186.446 E34.19814
G1 X229.678 Y193.815 E34.57027
G1 X227.761 Y201.014 E34.94195
G1 X225.1 Y207.983 E35.31412
G1 X221.727 Y214.626 E35.68581
G1 X217.677 Y220.884 E36.05771
G1 X212.992 Y226.688 E36.42983
G1 X207.731 Y231.966 E36.80163
G1 X201.957 Y236.656 E37.17275
G1 X198.592 Y238.859 E37.3734
G1 X200.177 Y242.198 E37.5578
G1 X200.272 Y242.55 E37.57599
G1 X200.269 Y242.743 E37.58562
G1 X200.182 Y243.075 E37.60275
G1 X200.084 Y243.243 E37.61245
G1 X199.839 Y243.492 E37.62988
G1 X199.677 Y243.587 E37.63925
G1 X199.341 Y243.681 E37.65665
G1 X199.152 Y243.684 E37.66608
G1 X198.814 Y243.599 E37.68347
G1 X198.642 Y243.505 E37.69325
G1 X198.395 Y243.267 E37.71036
G1 X198.266 Y243.061 E37.72249
G1 X196.91 Y240.217 E37.87968
G1 X196.812 Y240.012 E37.89102
G1 X196.621 Y240.136 E37.89811
G1 X195.607 Y240.795 E37.95844
G1 X188.968 Y244.178 E38.33019
G1 X182.111 Y246.81 E38.69662
G1 X174.915 Y248.75 E39.06845
G1 X167.559 Y249.926 E39.4401
G1 X160.111 Y250.328 E39.81222
G1 X152.561 Y249.946 E40.18938
G1 X145.186 Y248.778 E40.5619
G1 X137.994 Y246.851 E40.93337
G1 X131.032 Y244.178 E41.30543
G1 X124.4 Y240.798 E41.67679
G1 X123.379 Y240.136 E41.7375
G1 X123.378 Y240.135 E41.73757
G1 X123.189 Y240.013 E41.74879
G1 X123.092 Y240.217 E41.75583
G1 X121.744 Y243.043 E41.91204
G1 X121.493 Y243.397 E41.93369
G1 X121.344 Y243.513 E41.94311
G1 X121.028 Y243.655 E41.96039
G1 X120.839 Y243.684 E41.96993
G1 X120.494 Y243.651 E41.98722
G1 X120.315 Y243.583 E41.99678
G1 X120.029 Y243.379 E42.0143
G1 X119.91 Y243.238 E42.02351
G1 X119.762 Y242.916 E42.04119
G1 X119.728 Y242.73 E42.05062
G1 X119.758 Y242.389 E42.0677
