;FLAVOR:Marlin
;TIME:8632
;Filament used: 10.702m
;Layer height: 0.25
;MINX:68.006
;MINY:36.789
;MINZ:0.3
;MAXX:274.731
;MAXY:279.379
;MAXZ:14.8
;Generated with Cura_SteamEngine 4.3.0
M140 S60
M105
M190 S60
M104 S200
M105
M109 S200
M82 ;absolute extrusion mode
G28 ;Home
G1 Z15.0 F6000 ;Move the platform down 15mm
G92 E0
G1 F200 E3
G92 E0
G92 E0
G92 E0
G1 F1800 E-2.5
;LAYER_COUNT:59
;LAYER:0
M107
G0 F3600 X90.262 Y66.687 Z0.3
;TYPE:SKIRT
G1 F1800 E0
G1 X90.692 Y66.112 E0.03582
G1 X90.801 Y65.974 E0.04459
G1 X90.945 Y65.802 E0.05579
G1 X90.994 Y65.745 E0.05954
G1 X91.173 Y65.541 E0.07308
G1 X91.197 Y65.514 E0.07488
G1 X95.422 Y60.808 E0.3904
G1 X95.452 Y60.775 E0.39263
G1 X95.9 Y60.29 E0.42557
G1 X96.013 Y60.174 E0.43364
G1 X96.198 Y59.993 E0.44656
G1 X96.262 Y59.932 E0.45097
G1 X96.438 Y59.769 E0.46294
G1 X96.467 Y59.742 E0.46491
G1 X101.166 Y55.497 E0.78084
G1 X101.202 Y55.465 E0.78325
G1 X101.736 Y54.997 E0.81867
G1 X101.869 Y54.887 E0.82728
G1 X102.06 Y54.737 E0.8394
G1 X102.123 Y54.689 E0.84335
G1 X102.351 Y54.519 E0.85754
G1 X102.379 Y54.498 E0.85928
G1 X107.486 Y50.776 E1.17456
G1 X107.524 Y50.749 E1.17689
G1 X108.053 Y50.375 E1.20921
G1 X108.199 Y50.278 E1.21795
G1 X109.451 Y49.492 E1.2917
G1 X109.469 Y49.48 E1.29278
G1 X110.182 Y49.039 E1.33461
G1 X112.434 Y47.567 E1.46883
G1 X114.712 Y45.982 E1.60729
G1 X116.917 Y44.355 E1.744
G1 X119.053 Y42.683 E1.87933
G1 X121.179 Y40.92 E2.01712
G1 X123.516 Y38.858 E2.17261
G1 X124.485 Y37.978 E2.23792
G1 X124.99 Y37.603 E2.2693
G1 X125.388 Y37.364 E2.29246
G1 X125.84 Y37.138 E2.31767
G1 X126.141 Y37.034 E2.33356
G1 X126.526 Y36.922 E2.35356
G1 X127.021 Y36.82 E2.37878
G1 X127.328 Y36.796 E2.39414
G1 X127.537 Y36.79 E2.40457
G1 X127.641 Y36.789 E2.40976
G1 X127.906 Y36.79 E2.42298
G1 X128.319 Y36.818 E2.44363
G1 X128.543 Y36.848 E2.45491
G1 X128.621 Y36.86 E2.45885
G1 X130.937 Y37.229 E2.57585
G1 X133.623 Y37.577 E2.71097
G1 X136.37 Y37.856 E2.84873
G1 X139.11 Y38.055 E2.98579
G1 X141.829 Y38.177 E3.12158
G1 X145.286 Y38.212 E3.29405
G1 X152.099 Y38.207 E3.63396
G1 X152.14 Y38.207 E3.636
G1 X152.793 Y38.215 E3.66858
G1 X152.965 Y38.222 E3.67717
G1 X153.177 Y38.236 E3.68777
G1 X153.265 Y38.243 E3.69217
G1 X153.563 Y38.271 E3.70711
G1 X153.593 Y38.274 E3.70861
G1 X159.872 Y38.923 E4.02354
G1 X159.917 Y38.928 E4.0258
G1 X160.622 Y39.011 E4.06122
G1 X160.796 Y39.036 E4.06999
G1 X161.009 Y39.073 E4.08077
G1 X161.091 Y39.089 E4.08494
G1 X161.345 Y39.14 E4.09786
G1 X161.376 Y39.146 E4.09944
G1 X167.563 Y40.452 E4.41491
G1 X167.605 Y40.461 E4.41706
G1 X168.315 Y40.621 E4.45337
G1 X168.55 Y40.683 E4.46549
G1 X169.095 Y40.85 E4.49393
G1 X169.141 Y40.865 E4.49634
G1 X175.134 Y42.802 E4.81056
G1 X175.177 Y42.816 E4.81282
G1 X175.891 Y43.058 E4.85043
G1 X176.105 Y43.139 E4.86185
G1 X176.559 Y43.33 E4.88642
G1 X176.62 Y43.357 E4.88975
G1 X182.404 Y45.933 E5.20564
G1 X182.442 Y45.95 E5.20772
G1 X183.049 Y46.23 E5.24107
G1 X183.205 Y46.307 E5.24975
G1 X183.413 Y46.417 E5.26148
G1 X183.485 Y46.457 E5.26559
G1 X183.702 Y46.579 E5.27801
G1 X183.733 Y46.596 E5.27978
G1 X191.579 Y51.122 E5.73167
G1 X193.991 Y52.424 E5.86842
G1 X196.425 Y53.649 E6.00437
G1 X198.898 Y54.807 E6.1406
G1 X201.431 Y55.908 E6.2784
G1 X202.812 Y56.473 E6.35284
G1 X203.869 Y56.889 E6.40951
G1 X205.179 Y57.395 E6.47957
G1 X205.428 Y57.504 E6.49313
G1 X205.709 Y57.641 E6.50873
G1 X206.145 Y57.897 E6.53395
G1 X206.348 Y58.053 E6.54673
G1 X206.715 Y58.357 E6.5705
G1 X207.078 Y58.709 E6.59573
G1 X207.28 Y58.964 E6.61196
G1 X207.513 Y59.291 E6.63199
G1 X207.774 Y59.726 E6.6573
G1 X209.103 Y62.406 E6.80654
G1 X210.388 Y64.821 E6.94302
G1 X211.724 Y67.166 E7.07767
G1 X213.175 Y69.555 E7.21712
G1 X214.64 Y71.82 E7.35169
G1 X216.185 Y74.065 E7.48766
G1 X217.827 Y76.315 E7.62662
G1 X219.478 Y78.446 E7.76112
G1 X221.226 Y80.576 E7.89858
G1 X223.02 Y82.638 E8.03494
G1 X224.887 Y84.669 E8.17258
G1 X226.774 Y86.607 E8.30753
G1 X228.757 Y88.531 E8.44537
G1 X230.76 Y90.367 E8.58093
G1 X232.007 Y91.441 E8.66304
G1 X232.032 Y91.463 E8.6647
G1 X232.818 Y92.154 E8.71691
G1 X232.954 Y92.281 E8.7262
G1 X233.545 Y92.865 E8.76765
G1 X233.579 Y92.898 E8.77001
G1 X243.586 Y103.084 E9.4824
G1 X243.616 Y103.116 E9.48459
G1 X244.113 Y103.636 E9.52048
G1 X244.406 Y103.99 E9.5434
G1 X244.629 Y104.303 E9.56258
G1 X244.889 Y104.737 E9.58782
G1 X245.03 Y105.066 E9.60568
G1 X245.237 Y105.635 E9.63588
G1 X245.301 Y105.831 E9.64617
G1 X245.569 Y106.748 E9.69383
G1 X246.414 Y109.363 E9.83094
G1 X247.337 Y111.963 E9.96858
G1 X248.321 Y114.504 E10.10453
G1 X249.377 Y117.019 E10.24061
G1 X250.516 Y119.53 E10.37817
G1 X251.706 Y121.965 E10.51339
G1 X252.99 Y124.417 E10.65148
G1 X253.695 Y125.694 E10.72425
G1 X254.167 Y126.535 E10.77236
G1 X254.193 Y126.583 E10.77509
G1 X257.118 Y132.011 E11.08271
G1 X257.137 Y132.047 E11.08474
G1 X257.404 Y132.558 E11.1135
G1 X257.451 Y132.652 E11.11875
G1 X257.904 Y133.593 E11.17085
G1 X257.929 Y133.645 E11.17373
G1 X260.512 Y139.267 E11.4824
G1 X260.53 Y139.308 E11.48463
G1 X260.746 Y139.796 E11.51126
G1 X260.786 Y139.891 E11.5164
G1 X261.202 Y140.919 E11.57173
G1 X261.223 Y140.972 E11.57457
G1 X263.432 Y146.725 E11.88202
G1 X263.447 Y146.765 E11.88415
G1 X263.631 Y147.264 E11.91068
G1 X263.665 Y147.361 E11.91581
G1 X264.001 Y148.371 E11.96892
G1 X264.019 Y148.426 E11.9718
G1 X265.873 Y154.356 E12.28177
G1 X265.885 Y154.396 E12.28386
G1 X266.024 Y154.862 E12.30812
G1 X266.053 Y154.965 E12.31346
G1 X266.342 Y156.067 E12.3703
G1 X266.356 Y156.121 E12.37308
G1 X267.817 Y162.114 E12.68083
G1 X267.827 Y162.158 E12.68308
G1 X267.938 Y162.643 E12.7079
G1 X267.959 Y162.739 E12.7128
G1 X268.173 Y163.826 E12.76808
G1 X268.184 Y163.886 E12.77112
G1 X269.258 Y169.949 E13.07831
G1 X269.265 Y169.989 E13.08034
G1 X269.355 Y170.538 E13.10809
G1 X269.37 Y170.645 E13.11348
G1 X269.506 Y171.695 E13.16631
G1 X269.513 Y171.749 E13.16902
G1 X269.89 Y175.112 E13.33785
G1 X270.24 Y177.884 E13.47725
G1 X270.657 Y180.574 E13.61306
G1 X271.157 Y183.281 E13.75039
G1 X271.723 Y185.93 E13.88554
G1 X272.368 Y188.586 E14.02189
G1 X273.102 Y191.267 E14.16057
G1 X273.894 Y193.868 E14.29622
G1 X274.529 Y195.788 E14.39711
G1 X274.666 Y196.395 E14.42816
G1 X274.708 Y196.73 E14.445
G1 X274.731 Y197.235 E14.47022
G1 X274.702 Y197.569 E14.48695
G1 X274.635 Y198.05 E14.51118
G1 X274.461 Y198.735 E14.54644
G1 X274.142 Y199.585 E14.59173
G1 X273.17 Y202.201 E14.73096
G1 X272.291 Y204.792 E14.86746
G1 X271.484 Y207.409 E15.00409
G1 X270.752 Y210.045 E15.14058
G1 X270.095 Y212.701 E15.27708
G1 X269.508 Y215.393 E15.41454
G1 X269.006 Y218.075 E15.55067
G1 X268.965 Y218.327 E15.56341
G1 X268.96 Y218.357 E15.56493
G1 X268.722 Y219.736 E15.63474
G1 X268.687 Y219.914 E15.64379
G1 X268.64 Y220.117 E15.65419
G1 X268.623 Y220.186 E15.65773
G1 X268.537 Y220.523 E15.67509
G1 X268.528 Y220.556 E15.67679
G1 X266.922 Y226.585 E15.98807
G1 X266.911 Y226.627 E15.99024
G1 X266.714 Y227.328 E16.02656
G1 X266.644 Y227.545 E16.03794
G1 X266.479 Y228.004 E16.06227
G1 X266.457 Y228.063 E16.06541
G1 X264.192 Y233.991 E16.38202
G1 X264.175 Y234.034 E16.38432
G1 X263.933 Y234.641 E16.41692
G1 X263.86 Y234.811 E16.42615
G1 X263.746 Y235.055 E16.43959
G1 X263.717 Y235.116 E16.44296
G1 X263.606 Y235.341 E16.45548
G1 X263.59 Y235.373 E16.45726
G1 X260.732 Y241.005 E16.77235
G1 X260.713 Y241.041 E16.77438
G1 X260.389 Y241.66 E16.80924
G1 X260.277 Y241.856 E16.8205
G1 X260.037 Y242.245 E16.84331
G1 X260 Y242.304 E16.84678
G1 X256.533 Y247.659 E17.16505
G1 X256.507 Y247.699 E17.16743
G1 X256.135 Y248.255 E17.2008
G1 X256.042 Y248.387 E17.20886
G1 X255.911 Y248.563 E17.2198
G1 X255.848 Y248.644 E17.22492
G1 X255.63 Y248.918 E17.24239
G1 X255.616 Y248.936 E17.24353
G1 X251.69 Y253.8 E17.55538
G1 X251.66 Y253.837 E17.55776
G1 X251.214 Y254.373 E17.59255
G1 X251.1 Y254.502 E17.60114
G1 X250.117 Y255.562 E17.67326
G1 X250.092 Y255.589 E17.67509
G1 X249.62 Y256.086 E17.70929
G1 X247.783 Y258.135 E17.84658
G1 X246.022 Y260.214 E17.98251
G1 X244.309 Y262.356 E18.11935
G1 X242.652 Y264.553 E18.25664
G1 X241.085 Y266.756 E18.39151
G1 X239.206 Y269.583 E18.56086
G1 X238.557 Y270.596 E18.62089
G1 X238.143 Y271.114 E18.65397
G1 X237.819 Y271.443 E18.67701
G1 X237.437 Y271.774 E18.70222
G1 X237.203 Y271.931 E18.71628
G1 X236.881 Y272.127 E18.73509
G1 X236.43 Y272.355 E18.7603
G1 X236.142 Y272.457 E18.77554
G1 X235.887 Y272.534 E18.78883
G1 X235.781 Y272.564 E18.79433
G1 X235.562 Y272.622 E18.80563
G1 X235.121 Y272.707 E18.82804
G1 X234.827 Y272.742 E18.84281
G1 X234.781 Y272.747 E18.84512
G1 X232.536 Y272.981 E18.95773
G1 X229.842 Y273.34 E19.09332
G1 X227.122 Y273.78 E19.23079
G1 X224.453 Y274.29 E19.36635
G1 X221.782 Y274.88 E19.50282
G1 X218.44 Y275.739 E19.67497
G1 X211.852 Y277.507 E20.01528
G1 X211.813 Y277.517 E20.01729
G1 X211.146 Y277.687 E20.05163
G1 X210.92 Y277.736 E20.06317
G1 X210.362 Y277.836 E20.09145
G1 X210.303 Y277.846 E20.09443
G1 X204.132 Y278.832 E20.40621
G1 X204.09 Y278.838 E20.40833
G1 X203.399 Y278.939 E20.44317
G1 X203.223 Y278.96 E20.45201
G1 X203.001 Y278.98 E20.46313
G1 X202.911 Y278.987 E20.46764
G1 X202.603 Y279.006 E20.48303
G1 X202.579 Y279.007 E20.48423
G1 X196.319 Y279.345 E20.797
G1 X196.274 Y279.347 E20.79924
G1 X195.552 Y279.376 E20.83529
G1 X195.369 Y279.379 E20.84443
G1 X195.137 Y279.375 E20.856
G1 X195.063 Y279.372 E20.8597
G1 X194.816 Y279.362 E20.87203
G1 X194.783 Y279.361 E20.87368
G1 X188.38 Y279.036 E21.19353
G1 X188.335 Y279.033 E21.19578
G1 X187.596 Y278.985 E21.23273
G1 X187.367 Y278.962 E21.24421
G1 X186.844 Y278.89 E21.27055
G1 X186.779 Y278.881 E21.27383
G1 X180.561 Y277.896 E21.58791
G1 X180.52 Y277.889 E21.58999
G1 X179.845 Y277.773 E21.62416
G1 X179.651 Y277.733 E21.63404
G1 X179.431 Y277.681 E21.64532
G1 X179.371 Y277.667 E21.64839
G1 X179.11 Y277.6 E21.66183
G1 X179.079 Y277.591 E21.66344
G1 X170.389 Y275.266 E22.11224
G1 X167.678 Y274.62 E22.25128
G1 X165.045 Y274.075 E22.38542
G1 X162.36 Y273.595 E22.5215
G1 X159.623 Y273.185 E22.65958
G1 X156.924 Y272.86 E22.7952
G1 X156.74 Y272.842 E22.80443
G1 X156.697 Y272.837 E22.80659
G1 X155.733 Y272.732 E22.85496
G1 X155.534 Y272.704 E22.86499
G1 X155.06 Y272.622 E22.88899
G1 X154.57 Y272.497 E22.91422
G1 X154.281 Y272.382 E22.92974
G1 X154.039 Y272.272 E22.943
G1 X153.963 Y272.236 E22.94719
G1 X153.776 Y272.145 E22.95757
G1 X153.34 Y271.889 E22.98279
G1 X153.136 Y271.733 E22.99561
G1 X152.881 Y271.522 E23.01212
G1 X152.372 Y270.991 E23.04882
G1 X152.177 Y270.734 E23.06491
G1 X152.073 Y270.589 E23.07381
G1 X151.953 Y270.411 E23.08452
G1 X151.907 Y270.341 E23.0887
G1 X151.577 Y269.823 E23.11934
G1 X150.046 Y267.492 E23.25848
G1 X148.486 Y265.258 E23.39442
G1 X146.854 Y263.056 E23.53116
G1 X145.151 Y260.888 E23.6687
G1 X143.395 Y258.781 E23.80554
G1 X141.606 Y256.751 E23.94053
G1 X140.087 Y255.133 E24.05126
G1 X140.062 Y255.107 E24.05305
G1 X139.616 Y254.621 E24.08596
G1 X139.558 Y254.556 E24.09031
G1 X139.386 Y254.358 E24.10339
G1 X139.334 Y254.296 E24.10743
G1 X139.154 Y254.078 E24.12154
G1 X139.135 Y254.055 E24.12302
G1 X135.163 Y249.15 E24.43791
G1 X135.135 Y249.115 E24.44015
G1 X134.703 Y248.566 E24.475
G1 X134.649 Y248.495 E24.47945
G1 X134.266 Y247.979 E24.51151
G1 X132.577 Y245.769 E24.65028
G1 X130.841 Y243.626 E24.78787
G1 X129.071 Y241.564 E24.92345
G1 X127.222 Y239.528 E25.06066
G1 X125.336 Y237.566 E25.19644
G1 X123.393 Y235.657 E25.33233
G1 X121.366 Y233.773 E25.47039
G1 X119.298 Y231.959 E25.60764
G1 X117.216 Y230.234 E25.74253
G1 X115.061 Y228.549 E25.879
G1 X112.84 Y226.911 E26.01669
G1 X110.608 Y225.36 E26.15229
G1 X108.286 Y223.843 E26.29066
G1 X105.963 Y222.417 E26.42665
G1 X103.601 Y221.058 E26.56261
G1 X101.199 Y219.764 E26.69872
G1 X98.749 Y218.533 E26.83552
G1 X96.252 Y217.365 E26.97305
G1 X93.777 Y216.293 E27.10761
G1 X91.188 Y215.256 E27.24675
G1 X88.641 Y214.318 E27.38217
G1 X86.701 Y213.664 E27.48431
G1 X86.639 Y213.642 E27.48759
G1 X85.771 Y213.329 E27.53362
G1 X85.31 Y213.121 E27.55885
G1 X84.807 Y212.777 E27.58926
G1 X84.494 Y212.516 E27.60959
G1 X84.132 Y212.162 E27.63485
G1 X83.821 Y211.741 E27.66096
G1 X83.403 Y211.065 E27.70061
G1 X83.34 Y210.957 E27.70685
G1 X76.255 Y198.429 E28.4249
G1 X76.232 Y198.389 E28.42721
G1 X75.911 Y197.802 E28.46058
G1 X75.721 Y197.386 E28.4834
G1 X75.599 Y197.059 E28.50081
G1 X75.559 Y196.945 E28.50684
G1 X75.516 Y196.815 E28.51367
G1 X75.396 Y196.324 E28.53889
G1 X75.357 Y195.949 E28.5577
G1 X75.341 Y195.58 E28.57613
G1 X75.339 Y195.515 E28.57937
G1 X75.312 Y194.365 E28.63676
G1 X75.17 Y191.617 E28.77404
G1 X74.95 Y188.866 E28.91173
G1 X74.657 Y186.168 E29.04712
G1 X74.287 Y183.476 E29.18269
G1 X73.834 Y180.75 E29.32055
G1 X73.309 Y178.062 E29.45719
G1 X72.708 Y175.39 E29.59383
G1 X72.357 Y173.977 E29.66647
G1 X72.135 Y173.109 E29.71117
G1 X72.122 Y173.055 E29.71394
G1 X70.69 Y167.015 E30.02363
G1 X70.679 Y166.967 E30.02608
G1 X70.561 Y166.433 E30.05337
G1 X70.542 Y166.339 E30.05815
G1 X70.347 Y165.31 E30.1104
G1 X70.336 Y165.251 E30.1134
G1 X69.284 Y159.068 E30.4263
G1 X69.277 Y159.024 E30.42852
G1 X69.205 Y158.562 E30.45185
G1 X69.191 Y158.461 E30.45694
G1 X69.065 Y157.441 E30.50821
G1 X69.059 Y157.385 E30.51102
G1 X68.402 Y151.155 E30.82356
G1 X68.397 Y151.112 E30.82572
G1 X68.351 Y150.611 E30.85082
G1 X68.344 Y150.508 E30.85597
G1 X68.282 Y149.463 E30.9082
G1 X68.279 Y149.405 E30.9111
G1 X68.023 Y143.198 E31.22103
G1 X68.021 Y143.149 E31.22348
G1 X68.007 Y142.611 E31.25033
G1 X68.006 Y142.513 E31.25522
G1 X68.011 Y141.451 E31.3082
G1 X68.012 Y141.394 E31.31104
G1 X68.15 Y135.225 E31.61889
G1 X68.151 Y135.18 E31.62114
G1 X68.172 Y134.604 E31.6499
G1 X68.177 Y134.503 E31.65494
G1 X68.246 Y133.492 E31.7055
G1 X68.251 Y133.434 E31.7084
G1 X68.788 Y127.232 E32.01898
G1 X68.792 Y127.192 E32.02098
G1 X68.845 Y126.658 E32.04776
G1 X68.857 Y126.551 E32.05313
G1 X69.001 Y125.471 E32.10749
G1 X69.009 Y125.415 E32.11031
G1 X69.519 Y122.048 E32.2802
G1 X69.891 Y119.335 E32.41682
G1 X70.183 Y116.635 E32.55231
G1 X70.402 Y113.885 E32.68994
G1 X70.543 Y111.137 E32.82722
G1 X70.606 Y108.419 E32.96286
G1 X70.591 Y105.696 E33.09871
G1 X70.44 Y101.823 E33.29209
G1 X70.386 Y100.901 E33.33816
G1 X70.415 Y100.243 E33.37102
G1 X70.46 Y99.94 E33.38631
G1 X70.573 Y99.447 E33.41154
G1 X70.672 Y99.177 E33.42589
G1 X70.88 Y98.679 E33.45281
G1 X71.248 Y98.025 E33.49025
G1 X71.867 Y97.177 E33.54263
G1 X73.46 Y94.924 E33.68029
G1 X74.951 Y92.686 E33.81446
G1 X76.421 Y90.336 E33.95275
G1 X77.808 Y87.973 E34.08944
G1 X79.123 Y85.583 E34.22554
G1 X80.375 Y83.142 E34.36241
G1 X81.562 Y80.663 E34.49953
G1 X82.178 Y79.319 E34.57329
G1 X82.263 Y79.147 E34.58286
G1 X82.384 Y78.92 E34.59569
G1 X82.421 Y78.853 E34.59951
G1 X82.531 Y78.658 E34.61068
G1 X82.544 Y78.634 E34.61204
G1 X85.697 Y73.155 E34.92742
G1 X85.718 Y73.119 E34.9295
G1 X86.098 Y72.478 E34.96668
G1 X86.2 Y72.318 E34.97615
G1 X86.323 Y72.136 E34.98711
G1 X86.362 Y72.079 E34.99055
G1 X86.522 Y71.853 E35.00437
G1 X86.542 Y71.826 E35.00604
G1 X90.233 Y66.727 E35.32009
G1 X90.262 Y66.687 E35.32255
G1 F1800 E32.82255
;MESH:top.stl(2)
G0 F3600 X91.238 Y69.725
G0 X93.568 Y76.978
G0 X92.535 Y76.375
G0 X91.966 Y87.012
G0 X84.367 Y94.25
G0 X83.915 Y95.634
G0 X77.422 Y119.87
G0 X75.844 Y127.31
G0 X74.795 Y134.848
G0 X74.28 Y142.443
G0 X74.303 Y150.053
G0 X74.863 Y157.645
G0 X75.957 Y165.177
G0 X77.581 Y172.612
G0 X79.511 Y179.183
G0 X86.037 Y198.11
G0 X85.953 Y198.058
;TYPE:WALL-INNER
G1 F1800 E35.32255
G1 X85.794 Y197.755 E35.33962
G1 X85.793 Y197.754 E35.33969
G1 X84.114 Y194.576 E35.51901
G1 X80.948 Y187.532 E35.9043
G1 X78.264 Y180.375 E36.28565
