;Sliced by ideaMaker 3.5.0.3635, 2020-03-25 23:47:50 UTC+0100
;Dimension: 205.000 205.000 205.000 0.400 0.400
;Plate Shape: 0
;Extruder Offset #1: 25.000 0.000
;Filament Diameter #1: 1.750
;Filament Diameter #2: 1.750
;Filament Compensation #1: 94.00
;Filament Compensation #2: 100.00
;Filament Density #1: 1240.00
;Filament Density #2: 1120.00
;Bounding Box: 23.066 181.936 8.137 196.860 0.000 15.140
;Model Gap: 0.000
M221 T0 S94.00
M140 S60.00
M104 T0 S205.00
M109 T0 S205.00
T0
M190 S60.00
G21
G90
M82
M107
G28 X0 Y0
G28 Z0
G1 Z15.0 F300
G92 E0
G1 F140 E29
G1 X20 Y0 F140 E30
G92 E0
G1 F6000.0
M117 Printing...
M1001
;LAYER:0
;Z:0.300
;HEIGHT:0.300
M106 S0
G1 F1200 E-1.0000
G0 F6000 X52.699 Y22.237
G0 F300 Z0.300
;TYPE:SKIRT
;WIDTH:0.400
G1 F1200 E0.0000
G1 F900 X52.917 Y21.749 E0.0267
G1 X53.028 Y21.547 E0.0382
G1 X53.345 Y21.074 E0.0666
G1 X53.689 Y20.672 E0.0930
G1 X64.617 Y9.493 E0.8729
G1 X65.012 Y9.139 E0.8994
G1 X65.451 Y8.825 E0.9263
G1 X65.641 Y8.712 E0.9373
G1 X66.153 Y8.466 E0.9657
G1 X66.369 Y8.385 E0.9772
G1 X66.908 Y8.235 E1.0051
G1 X67.134 Y8.193 E1.0166
G1 X67.691 Y8.139 E1.0445
G1 X67.921 Y8.137 E1.0559
G1 X68.464 Y8.179 E1.0831
G1 X68.691 Y8.216 E1.0946
G1 X69.246 Y8.358 E1.1232
G1 X69.463 Y8.435 E1.1347
G1 X69.961 Y8.662 E1.1620
G1 X70.162 Y8.775 E1.1735
G1 X70.638 Y9.102 E1.2023
G1 X70.815 Y9.249 E1.2138
G1 X71.201 Y9.628 E1.2407
G1 X71.345 Y9.796 E1.2518
G1 X71.664 Y10.241 E1.2791
G1 X71.782 Y10.439 E1.2906
G1 X72.023 Y10.937 E1.3182
G1 X72.105 Y11.152 E1.3297
G1 X72.256 Y11.680 E1.3571
G1 X72.300 Y11.906 E1.3686
G1 X72.359 Y12.476 E1.3972
G1 X72.362 Y12.707 E1.4087
G1 X72.327 Y13.221 E1.4344
G1 X72.293 Y13.449 E1.4459
G1 X72.148 Y14.035 E1.4760
G1 X72.076 Y14.241 E1.4869
G1 X73.832 Y16.097 E1.6144
G1 X74.118 Y16.447 E1.6369
G1 X74.353 Y16.833 E1.6595
G1 X74.531 Y17.249 E1.6820
G1 X74.648 Y17.686 E1.7046
G1 X74.703 Y18.135 E1.7272
G1 X74.694 Y18.587 E1.7497
G1 X74.621 Y19.033 E1.7723
G1 X74.486 Y19.465 E1.7949
G1 X74.291 Y19.873 E1.8174
G1 X74.041 Y20.250 E1.8400
G1 X73.670 Y20.654 E1.8673
G1 X69.936 Y24.078 E2.1201
G1 X64.879 Y29.417 E2.4870
G1 X60.210 Y35.103 E2.8540
G1 X55.962 Y41.092 E3.2204
G1 X52.136 Y47.385 E3.5878
G1 X48.771 Y53.913 E3.9542
G1 X45.872 Y60.671 E4.3211
G1 X43.452 Y67.632 E4.6887
G1 X41.532 Y74.733 E5.0557
G1 X40.117 Y81.946 E5.4225
G1 X39.212 Y89.251 E5.7897
G1 X38.823 Y96.640 E6.1588
G1 X38.823 Y118.655 E7.2572
G1 X44.949 Y130.005 E7.9006
G1 X53.427 Y140.374 E8.5689
G1 X63.712 Y148.945 E9.2368
G1 X75.424 Y155.402 E9.9040
G1 X88.154 Y159.521 E10.5715
G1 X101.424 Y161.146 E11.2385
G1 X114.761 Y160.219 E11.9055
G1 X127.685 Y156.775 E12.5728
G1 X139.721 Y150.940 E13.2401
G1 X150.438 Y142.921 E13.9079
G1 X159.444 Y133.013 E14.5759
G1 X166.155 Y122.000 E15.2193
G1 X166.177 Y121.578 E15.2404
G1 X166.177 Y96.640 E16.4846
G1 X165.788 Y89.251 E16.8537
G1 X164.883 Y81.946 E17.2210
G1 X163.468 Y74.733 E17.5877
G1 X161.548 Y67.632 E17.9547
G1 X159.128 Y60.671 E18.3223
G1 X156.229 Y53.913 E18.6892
G1 X152.864 Y47.385 E19.0556
G1 X149.038 Y41.092 E19.4230
G1 X144.790 Y35.103 E19.7894
G1 X140.122 Y29.418 E20.1564
G1 X135.064 Y24.078 E20.5233
G1 X131.330 Y20.654 E20.7761
G1 X131.019 Y20.326 E20.7986
G1 X130.758 Y19.957 E20.8212
G1 X130.551 Y19.555 E20.8437
G1 X130.403 Y19.127 E20.8663
G1 X130.317 Y18.684 E20.8888
G1 X130.294 Y18.232 E20.9114
G1 X130.335 Y17.781 E20.9340
G1 X130.439 Y17.341 E20.9566
G1 X130.604 Y16.920 E20.9791
G1 X130.827 Y16.527 E21.0017
G1 X131.167 Y16.098 E21.0290
G1 X132.925 Y14.238 E21.1567
G1 X132.872 Y14.094 E21.1643
G1 X132.721 Y13.521 E21.1939
G1 X132.683 Y13.293 E21.2054
G1 X132.639 Y12.781 E21.2310
G1 X132.638 Y12.550 E21.2426
G1 X132.689 Y11.965 E21.2719
G1 X132.730 Y11.739 E21.2833
G1 X132.874 Y11.211 E21.3106
G1 X132.953 Y10.995 E21.3221
G1 X133.190 Y10.489 E21.3500
G1 X133.306 Y10.289 E21.3615
G1 X133.632 Y9.826 E21.3898
G1 X133.781 Y9.650 E21.4013
G1 X134.170 Y9.263 E21.4286
G1 X134.347 Y9.115 E21.4402
G1 X134.809 Y8.793 E21.4683
G1 X135.008 Y8.679 E21.4797
G1 X135.500 Y8.451 E21.5068
G1 X135.716 Y8.372 E21.5182
G1 X136.297 Y8.219 E21.5482
G1 X136.541 Y8.179 E21.5605
G1 X137.088 Y8.137 E21.5879
G1 X137.310 Y8.139 E21.5990
G1 X137.866 Y8.193 E21.6269
G1 X138.092 Y8.235 E21.6383
G1 X138.631 Y8.385 E21.6662
G1 X138.847 Y8.466 E21.6777
G1 X139.361 Y8.713 E21.7062
G1 X139.559 Y8.831 E21.7177
G1 X140.010 Y9.156 E21.7454
G1 X140.184 Y9.306 E21.7569
G1 X151.305 Y20.665 E22.5500
G1 X151.633 Y21.046 E22.5751
G1 X151.937 Y21.488 E22.6018
G1 X152.051 Y21.688 E22.6133
G1 X152.278 Y22.178 E22.6402
G1 X152.357 Y22.395 E22.6518
G1 X152.506 Y22.962 E22.6810
G1 X152.544 Y23.189 E22.6925
G1 X152.588 Y23.703 E22.7182
G1 X152.589 Y23.934 E22.7298
G1 X152.538 Y24.517 E22.7590
G1 X152.497 Y24.744 E22.7705
G1 X152.353 Y25.274 E22.7979
G1 X152.274 Y25.490 E22.8093
G1 X152.034 Y26.003 E22.8376
G1 X151.918 Y26.202 E22.8491
G1 X151.601 Y26.651 E22.8765
G1 X151.452 Y26.828 E22.8881
G1 X151.050 Y27.227 E22.9163
G1 X150.866 Y27.380 E22.9282
G1 X150.504 Y27.630 E22.9502
G1 X152.230 Y29.764 E23.0871
G1 X156.872 Y36.292 E23.4868
G1 X161.089 Y43.104 E23.8865
G1 X164.865 Y50.171 E24.2862
G1 X168.105 Y57.277 E24.6758
G1 X171.031 Y64.957 E25.0859
G1 X173.397 Y72.616 E25.4858
G1 X175.229 Y80.211 E25.8756
G1 X176.645 Y88.308 E26.2857
G1 X177.498 Y96.074 E26.6754
G1 X177.517 Y96.423 E26.6929
G1 X177.517 Y109.594 E27.3500
G1 X178.177 Y109.701 E27.3833
G1 X178.515 Y109.793 E27.4008
G1 X179.179 Y110.048 E27.4363
G1 X179.647 Y110.305 E27.4629
G1 X179.885 Y110.463 E27.4772
G1 X180.315 Y110.805 E27.5046
G1 X180.522 Y111.001 E27.5188
G1 X180.881 Y111.403 E27.5457
G1 X181.053 Y111.632 E27.5600
G1 X181.381 Y112.174 E27.5916
G1 X181.533 Y112.492 E27.6092
G1 X181.740 Y113.057 E27.6392
G1 X181.813 Y113.334 E27.6535
G1 X181.901 Y113.813 E27.6778
G1 X181.924 Y114.031 E27.6887
G1 X181.936 Y114.567 E27.7155
G1 X181.914 Y114.918 E27.7330
G1 X181.814 Y115.533 E27.7641
G1 X181.741 Y115.810 E27.7784
G1 X181.552 Y116.336 E27.8063
G1 X181.432 Y116.596 E27.8206
G1 X181.170 Y117.058 E27.8471
G1 X181.009 Y117.294 E27.8613
G1 X180.657 Y117.726 E27.8891
G1 X180.253 Y118.122 E27.9174
G1 X177.517 Y120.476 E28.0974
G1 X177.513 Y121.834 E28.1652
G1 X177.120 Y129.359 E28.5411
G1 X177.085 Y129.691 E28.5578
G1 X175.909 Y137.135 E28.9338
G1 X175.839 Y137.462 E28.9504
G1 X173.893 Y144.741 E29.3263
G1 X173.791 Y145.059 E29.3430
G1 X171.098 Y152.094 E29.7188
G1 X170.962 Y152.400 E29.7355
G1 X167.549 Y159.115 E30.1113
G1 X167.382 Y159.405 E30.1280
G1 X163.288 Y165.725 E30.5037
G1 X163.091 Y165.996 E30.5204
G1 X158.360 Y171.853 E30.8960
G1 X158.137 Y172.102 E30.9127
G1 X152.821 Y177.431 E31.2883
G1 X152.572 Y177.656 E31.3050
G1 X146.730 Y182.398 E31.6804
G1 X145.958 Y182.921 E31.7269
G1 X146.118 Y183.258 E31.7455
G1 X146.321 Y183.762 E31.7726
G1 X146.475 Y184.307 E31.8009
G1 X146.528 Y184.588 E31.8151
G1 X146.583 Y185.136 E31.8426
G1 X146.587 Y185.423 E31.8569
G1 X146.547 Y185.971 E31.8844
G1 X146.502 Y186.254 E31.8987
G1 X146.369 Y186.790 E31.9262
G1 X146.276 Y187.061 E31.9405
G1 X146.053 Y187.564 E31.9679
G1 X145.915 Y187.815 E31.9822
G1 X145.616 Y188.264 E32.0092
G1 X145.438 Y188.488 E32.0234
G1 X145.051 Y188.895 E32.0514
G1 X144.837 Y189.084 E32.0657
G1 X144.329 Y189.451 E32.0970
G1 X144.025 Y189.628 E32.1145
G1 X143.491 Y189.877 E32.1439
G1 X143.222 Y189.973 E32.1582
G1 X142.685 Y190.113 E32.1858
G1 X142.404 Y190.161 E32.2001
G1 X141.843 Y190.207 E32.2281
G1 X141.557 Y190.205 E32.2424
G1 X140.851 Y190.129 E32.2778
G1 X140.327 Y189.998 E32.3048
G1 X139.994 Y189.884 E32.3223
G1 X139.432 Y189.628 E32.3532
G1 X139.184 Y189.485 E32.3674
G1 X138.737 Y189.174 E32.3946
G1 X138.518 Y188.992 E32.4088
G1 X138.118 Y188.596 E32.4369
G1 X137.933 Y188.377 E32.4512
G1 X137.661 Y187.993 E32.4747
G1 X133.167 Y190.289 E32.7264
G1 X132.860 Y190.425 E32.7432
G1 X125.842 Y193.126 E33.1184
G1 X125.523 Y193.230 E33.1351
G1 X118.262 Y195.180 E33.5102
G1 X117.934 Y195.250 E33.5269
G1 X110.509 Y196.429 E33.9020
G1 X110.175 Y196.465 E33.9188
G1 X102.668 Y196.860 E34.2938
G1 X102.327 Y196.859 E34.3108
G1 X94.702 Y196.446 E34.6918
G1 X94.373 Y196.411 E34.7083
G1 X87.066 Y195.250 E35.0774
G1 X86.738 Y195.180 E35.0941
G1 X79.477 Y193.230 E35.4692
G1 X79.158 Y193.126 E35.4860
G1 X72.140 Y190.425 E35.8611
G1 X71.833 Y190.289 E35.8779
G1 X67.340 Y187.994 E36.1296
G1 X67.068 Y188.378 E36.1531
G1 X66.883 Y188.597 E36.1674
G1 X66.483 Y188.993 E36.1955
G1 X66.264 Y189.175 E36.2097
G1 X65.817 Y189.486 E36.2368
G1 X65.569 Y189.629 E36.2511
G1 X65.076 Y189.860 E36.2783
G1 X64.807 Y189.959 E36.2926
G1 X64.265 Y190.106 E36.3206
G1 X63.985 Y190.156 E36.3348
G1 X63.444 Y190.206 E36.3619
G1 X63.158 Y190.208 E36.3762
G1 X62.526 Y190.149 E36.4078
G1 X62.181 Y190.082 E36.4254
G1 X61.606 Y189.914 E36.4552
G1 X61.340 Y189.808 E36.4695
G1 X60.844 Y189.558 E36.4972
G1 X60.601 Y189.408 E36.5115
G1 X60.164 Y189.083 E36.5387
G1 X59.950 Y188.894 E36.5529
G1 X59.563 Y188.487 E36.5809
G1 X59.385 Y188.263 E36.5952
G1 X59.086 Y187.814 E36.6221
G1 X58.948 Y187.563 E36.6364
G1 X58.725 Y187.060 E36.6639
G1 X58.632 Y186.789 E36.6781
G1 X58.499 Y186.253 E36.7057
G1 X58.454 Y185.970 E36.7200
G1 X58.414 Y185.422 E36.7474
G1 X58.418 Y185.137 E36.7616
G1 X58.473 Y184.589 E36.7891
G1 X58.526 Y184.308 E36.8034
G1 X58.675 Y183.776 E36.8309
G1 X58.882 Y183.258 E36.8588
G1 X59.042 Y182.921 E36.8774
G1 X58.270 Y182.398 E36.9239
G1 X52.428 Y177.656 E37.2993
G1 X52.179 Y177.431 E37.3160
G1 X46.863 Y172.102 E37.6916
G1 X46.640 Y171.853 E37.7082
G1 X41.909 Y165.996 E38.0839
G1 X41.712 Y165.725 E38.1006
G1 X37.618 Y159.405 E38.4763
G1 X37.451 Y159.115 E38.4930
G1 X34.038 Y152.400 E38.8688
G1 X33.902 Y152.094 E38.8855
G1 X31.209 Y145.059 E39.2613
G1 X31.107 Y144.741 E39.2779
G1 X29.161 Y137.462 E39.6538
G1 X29.091 Y137.135 E39.6705
G1 X27.915 Y129.691 E40.0465
G1 X27.880 Y129.359 E40.0632
G1 X27.487 Y121.834 E40.4391
G1 X27.483 Y120.476 E40.5069
G1 X24.747 Y118.122 E40.6869
G1 X24.354 Y117.738 E40.7143
G1 X23.990 Y117.295 E40.7429
G1 X23.829 Y117.059 E40.7572
G1 X23.567 Y116.597 E40.7837
G1 X23.447 Y116.337 E40.7980
G1 X23.258 Y115.811 E40.8259
G1 X23.185 Y115.534 E40.8402
G1 X23.090 Y114.988 E40.8678
G1 X23.066 Y114.703 E40.8821
G1 X23.067 Y114.155 E40.9094
G1 X23.092 Y113.869 E40.9237
G1 X23.207 Y113.254 E40.9550
G1 X23.305 Y112.917 E40.9725
G1 X23.482 Y112.450 E40.9974
G1 X23.576 Y112.250 E41.0084
G1 X23.839 Y111.792 E41.0348
G1 X24.002 Y111.556 E41.0491
G1 X24.350 Y111.135 E41.0763
G1 X24.550 Y110.931 E41.0906
G1 X24.966 Y110.574 E41.1179
G1 X25.198 Y110.407 E41.1322
G1 X25.728 Y110.098 E41.1628
G1 X26.047 Y109.951 E41.1803
G1 X26.636 Y109.746 E41.2114
G1 X26.914 Y109.679 E41.2257
G1 X27.483 Y109.595 E41.2544
G1 X27.483 Y96.423 E41.9115
G1 X27.502 Y96.074 E41.9290
G1 X28.384 Y88.106 E42.3289
G1 X29.730 Y80.410 E42.7187
G1 X31.657 Y72.419 E43.1288
G1 X33.969 Y64.957 E43.5186
G1 X36.895 Y57.277 E43.9286
G1 X40.135 Y50.171 E44.3182
G1 X44.013 Y42.927 E44.7281
G1 X48.241 Y36.123 E45.1278
G1 X52.765 Y29.771 E45.5169
G1 X54.497 Y27.629 E45.6543
G1 X54.151 Y27.394 E45.6752
G1 X53.973 Y27.248 E45.6866
G1 X53.566 Y26.849 E45.7151
G1 X53.422 Y26.680 E45.7262
G1 X53.113 Y26.249 E45.7526
G1 X52.995 Y26.052 E45.7641
G1 X52.750 Y25.548 E45.7920
G1 X52.668 Y25.333 E45.8035
G1 X52.516 Y24.802 E45.8311
G1 X52.472 Y24.575 E45.8426
G1 X52.414 Y24.008 E45.8710
G1 X52.411 Y23.777 E45.8826
G1 X52.446 Y23.261 E45.9084
G1 X52.480 Y23.034 E45.9198
G1 X52.623 Y22.455 E45.9496
G1 X52.699 Y22.237 E45.9611
G1 F1200 E44.9611
G0 F6000 X56.271 Y23.536
;TYPE:WALL-INNER
;WIDTH:0.400
G1 F1200 E45.9611
G1 F1500 X56.332 Y23.424 E45.9674
G1 X56.426 Y23.308 E45.9749
G1 X67.315 Y12.169 E46.7520
G1 X67.437 Y12.065 E46.7600
G1 X67.654 Y11.961 E46.7720
G1 X67.903 Y11.937 E46.7845
G1 X68.026 Y11.958 E46.7908
G1 X68.252 Y12.060 E46.8031
G1 X68.426 Y12.230 E46.8153
G1 X68.491 Y12.339 E46.8216
G1 X68.560 Y12.580 E46.8341
G1 X68.543 Y12.833 E46.8467
G1 X68.503 Y12.948 E46.8528
G1 X68.347 Y13.176 E46.8666
G1 X66.287 Y15.283 E47.0136
G1 X66.986 Y18.497 E47.1777
G1 X67.657 Y18.704 E47.2127
G1 X69.452 Y16.996 E47.3364
G1 X70.652 Y18.266 E47.4235
G1 X67.266 Y21.371 E47.6527
G1 X62.028 Y26.901 E48.0327
G1 X57.191 Y32.791 E48.4130
G1 X52.783 Y39.007 E48.7932
G1 X48.822 Y45.519 E49.1734
G1 X45.330 Y52.296 E49.5538
G1 X42.324 Y59.304 E49.9342
G1 X39.821 Y66.506 E50.3146
G1 X37.829 Y73.867 E50.6951
G1 X36.361 Y81.351 E51.0756
G1 X35.424 Y88.920 E51.4561
G1 X35.023 Y96.532 E51.8363
G1 X35.023 Y119.616 E52.9880
G1 X41.777 Y132.130 E53.6975
G1 X50.715 Y143.060 E54.4019
G1 X61.557 Y152.096 E55.1060
G1 X73.910 Y158.907 E55.8098
G1 X87.328 Y163.247 E56.5134
G1 X101.323 Y164.962 E57.2168
G1 X115.389 Y163.984 E57.9202
G1 X129.014 Y160.353 E58.6237
G1 X141.706 Y154.200 E59.3274
G1 X153.005 Y145.746 E60.0314
G1 X162.502 Y135.298 E60.7359
G1 X169.900 Y123.157 E61.4452
G1 X169.977 Y121.682 E61.5188
G1 X169.977 Y96.532 E62.7736
G1 X169.576 Y88.920 E63.1539
G1 X168.639 Y81.351 E63.5344
G1 X167.171 Y73.867 E63.9149
G1 X165.179 Y66.506 E64.2953
G1 X162.676 Y59.304 E64.6757
G1 X159.670 Y52.296 E65.0562
G1 X156.178 Y45.519 E65.4365
G1 X152.217 Y39.007 E65.8168
G1 X147.809 Y32.791 E66.1969
G1 X142.973 Y26.902 E66.5771
G1 X137.734 Y21.371 E66.9572
G1 X134.348 Y18.266 E67.1864
G1 X135.548 Y16.996 E67.2736
G1 X137.343 Y18.704 E67.3972
G1 X138.014 Y18.497 E67.4322
G1 X138.713 Y15.283 E67.5963
G1 X136.657 Y13.181 E67.7430
G1 X136.502 Y12.958 E67.7566
G1 X136.460 Y12.842 E67.7627
G1 X136.439 Y12.716 E67.7691
G1 X136.460 Y12.468 E67.7815
G1 X136.566 Y12.241 E67.7940
G1 X136.744 Y12.065 E67.8065
G1 X136.854 Y12.002 E67.8128
G1 X136.968 Y11.960 E67.8189
G1 X137.104 Y11.937 E67.8258
G1 X137.224 Y11.939 E67.8317
G1 X137.462 Y12.005 E67.8441
G1 X137.569 Y12.069 E67.8503
G1 X137.684 Y12.168 E67.8579
G1 X148.570 Y23.303 E68.6348
G1 X148.661 Y23.415 E68.6420
G1 X148.767 Y23.643 E68.6545
G1 X148.789 Y23.896 E68.6672
G1 X148.723 Y24.135 E68.6795
G1 X148.661 Y24.243 E68.6858
G1 X148.478 Y24.424 E68.6986
G1 X148.252 Y24.527 E68.7110
G1 X148.012 Y24.546 E68.7230
G1 X147.769 Y24.480 E68.7356
G1 X147.547 Y24.321 E68.7492
G1 X145.486 Y22.213 E68.8963
G1 X142.217 Y22.859 E69.0625
G1 X142.000 Y23.529 E69.0976
G1 X144.247 Y25.956 E69.2627
G1 X149.147 Y31.983 E69.6502
G1 X153.653 Y38.312 E70.0378
G1 X157.748 Y44.914 E70.4254
G1 X161.415 Y51.766 E70.8131
G1 X164.639 Y58.836 E71.2008
G1 X167.407 Y66.100 E71.5886
G1 X169.707 Y73.525 E71.9764
G1 X171.530 Y81.083 E72.3643
G1 X172.870 Y88.741 E72.7521
G1 X173.717 Y96.456 E73.1394
G1 X173.717 Y115.006 E74.0648
G1 X174.416 Y115.328 E74.1032
G1 X176.376 Y113.642 E74.2322
G1 X176.545 Y113.520 E74.2426
G1 X176.707 Y113.441 E74.2516
G1 X176.881 Y113.391 E74.2606
G1 X177.063 Y113.372 E74.2698
G1 X177.238 Y113.384 E74.2785
G1 X177.473 Y113.448 E74.2907
G1 X177.740 Y113.600 E74.3060
G1 X177.872 Y113.726 E74.3151
G1 X177.978 Y113.867 E74.3239
G1 X178.080 Y114.080 E74.3357
G1 X178.127 Y114.257 E74.3448
G1 X178.140 Y114.379 E74.3509
G1 X178.125 Y114.622 E74.3631
G1 X178.080 Y114.791 E74.3718
G1 X178.003 Y114.958 E74.3810
G1 X177.900 Y115.110 E74.3901
G1 X177.755 Y115.258 E74.4005
G1 X173.717 Y118.731 E74.6662
G1 X173.717 Y121.652 E74.8119
G1 X173.327 Y129.129 E75.1855
G1 X172.160 Y136.511 E75.5583
G1 X170.230 Y143.730 E75.9311
G1 X167.560 Y150.706 E76.3038
G1 X164.175 Y157.365 E76.6765
G1 X160.116 Y163.632 E77.0490
G1 X155.424 Y169.440 E77.4215
G1 X150.153 Y174.725 E77.7939
G1 X144.359 Y179.427 E78.1661
G1 X141.099 Y181.551 E78.3603
G1 X142.676 Y184.868 E78.5435
G1 X142.750 Y185.064 E78.5539
