;FLAVOR:UltiGCode
;TIME:2759
;MATERIAL:12801
;MATERIAL2:0
;NOZZLE_DIAMETER:0.8
;MINX:31.886
;MINY:17.184
;MINZ:0.3
;MAXX:191.114
;MAXY:205.818
;MAXZ:14.8
;Generated with Cura_SteamEngine 4.3.0
M82 ;absolute extrusion mode

G92 E0
G92 E0
G10
;LAYER_COUNT:59
;LAYER:0
M107
G0 F3600 X61.898 Y30.594 Z0.3
;TYPE:SKIRT
G11
G1 F1800 X62.362 Y29.972 E0.18624
G1 X62.997 Y29.298 E0.40848
G1 X63.041 Y29.252 E0.42376
G1 X72.966 Y19.099 E3.83133
G1 X73.001 Y19.064 E3.84321
G1 X73.452 Y18.616 E3.99578
G1 X73.593 Y18.484 E4.04213
G1 X73.813 Y18.289 E4.11269
G1 X74.228 Y17.974 E4.23773
G1 X74.565 Y17.783 E4.3307
G1 X74.987 Y17.575 E4.44361
G1 X75.471 Y17.381 E4.56875
G1 X76.112 Y17.246 E4.72597
G1 X76.505 Y17.202 E4.82088
G1 X77.026 Y17.184 E4.94599
G1 X77.602 Y17.258 E5.08537
G1 X78.106 Y17.367 E5.20913
G1 X78.48 Y17.47 E5.30223
G1 X79.467 Y17.805 E5.55238
G1 X79.515 Y17.822 E5.5646
G1 X80.39 Y18.133 E5.78747
G1 X82.98 Y18.974 E6.44102
G1 X85.638 Y19.754 E7.10584
G1 X88.238 Y20.437 E7.75101
G1 X90.955 Y21.072 E8.42066
G1 X93.558 Y21.599 E9.05806
G1 X96.289 Y22.074 E9.72334
G1 X99.001 Y22.467 E10.38102
G1 X101.694 Y22.781 E11.03171
G1 X104.424 Y23.02 E11.68942
G1 X107.161 Y23.182 E12.34745
G1 X109.866 Y23.265 E12.99696
G1 X112.608 Y23.272 E13.65504
G1 X115.348 Y23.202 E14.31285
G1 X118.053 Y23.056 E14.963
G1 X120.815 Y22.828 E15.62813
G1 X123.516 Y22.527 E16.28039
G1 X126.223 Y22.15 E16.93634
G1 X128.901 Y21.697 E17.58819
G1 X131.591 Y21.165 E18.24629
G1 X134.222 Y20.567 E18.89384
G1 X136.905 Y19.877 E19.55871
G1 X139.529 Y19.121 E20.21408
G1 X142.14 Y18.289 E20.87177
G1 X143.138 Y17.935 E21.12591
G1 X143.187 Y17.917 E21.13844
G1 X144.542 Y17.46 E21.48164
G1 X144.795 Y17.386 E21.5449
G1 X145.19 Y17.286 E21.64269
G1 X145.703 Y17.197 E21.76765
G1 X146.306 Y17.194 E21.91237
G1 X146.787 Y17.234 E22.02821
G1 X147.301 Y17.317 E22.15317
G1 X147.941 Y17.54 E22.31583
G1 X148.25 Y17.684 E22.39764
G1 X148.309 Y17.712 E22.41332
G1 X148.405 Y17.759 E22.43897
G1 X148.854 Y18.024 E22.5641
G1 X149.298 Y18.393 E22.70266
G1 X149.896 Y18.983 E22.90427
G1 X149.934 Y19.02 E22.917
G1 X159.921 Y29.187 E26.33738
G1 X159.954 Y29.221 E26.34876
G1 X160.445 Y29.735 E26.51935
G1 X160.758 Y30.116 E26.63769
G1 X160.998 Y30.454 E26.73718
G1 X161.266 Y30.9 E26.86206
G1 X161.432 Y31.291 E26.96401
G1 X161.626 Y31.841 E27.10398
G1 X161.682 Y32.014 E27.14762
G1 X161.976 Y33.016 E27.39824
G1 X162.822 Y35.622 E28.05581
G1 X163.738 Y38.198 E28.71197
G1 X164.719 Y40.722 E29.36188
G1 X165.793 Y43.275 E30.02661
G1 X166.91 Y45.732 E30.67437
G1 X168.117 Y48.198 E31.3333
G1 X169.403 Y50.649 E31.99759
G1 X170.048 Y51.816 E32.3176
G1 X170.52 Y52.656 E32.54885
G1 X170.549 Y52.71 E32.56356
G1 X173.479 Y58.149 E34.04628
G1 X173.5 Y58.188 E34.05691
G1 X173.775 Y58.715 E34.19957
G1 X173.824 Y58.813 E34.22587
G1 X174.27 Y59.739 E34.47254
G1 X174.297 Y59.795 E34.48746
G1 X176.885 Y65.43 E35.97568
G1 X176.902 Y65.469 E35.98589
G1 X177.116 Y65.951 E36.11246
G1 X177.161 Y66.056 E36.13987
G1 X177.577 Y67.084 E36.40603
G1 X177.599 Y67.14 E36.42047
G1 X179.808 Y72.893 E37.89947
G1 X179.824 Y72.936 E37.91049
G1 X180.009 Y73.438 E38.03889
G1 X180.045 Y73.541 E38.06507
G1 X180.38 Y74.548 E38.31978
G1 X180.399 Y74.606 E38.33442
G1 X182.253 Y80.536 E39.82556
G1 X182.267 Y80.582 E39.8371
G1 X182.415 Y81.08 E39.96179
G1 X182.444 Y81.182 E39.98724
G1 X182.708 Y82.183 E40.23569
G1 X182.723 Y82.245 E40.251
G1 X184.204 Y88.323 E41.7524
G1 X184.214 Y88.365 E41.76276
G1 X184.323 Y88.838 E41.87926
G1 X184.346 Y88.945 E41.90552
G1 X184.556 Y90.013 E42.16675
G1 X184.568 Y90.076 E42.18214
G1 X185.644 Y96.153 E43.66331
G1 X185.651 Y96.196 E43.67377
G1 X185.741 Y96.745 E43.80728
G1 X185.758 Y96.858 E43.83471
G1 X185.892 Y97.892 E44.08494
G1 X185.899 Y97.95 E44.09897
G1 X186.281 Y101.36 E44.92248
G1 X186.621 Y104.053 E45.57394
G1 X187.043 Y106.775 E46.23502
G1 X187.537 Y109.455 E46.88906
G1 X188.103 Y112.105 E47.5394
G1 X188.752 Y114.776 E48.19909
G1 X189.476 Y117.422 E48.85748
G1 X190.67 Y121.255 E49.82099
G1 X190.909 Y121.971 E50.00215
G1 X191.058 Y122.628 E50.16384
G1 X191.089 Y122.877 E50.22406
G1 X191.114 Y123.398 E50.34924
G1 X191.095 Y123.664 E50.41325
G1 X191.035 Y124.216 E50.54651
G1 X190.939 Y124.729 E50.67176
G1 X190.838 Y125.044 E50.75116
G1 X190.52 Y125.891 E50.96829
G1 X189.556 Y128.486 E51.63268
G1 X188.682 Y131.058 E52.28462
G1 X187.869 Y133.693 E52.94644
G1 X187.138 Y136.324 E53.6018
G1 X186.484 Y138.966 E54.25502
G1 X185.899 Y141.65 E54.9143
G1 X185.389 Y144.369 E55.57824
G1 X185.358 Y144.563 E55.62539
G1 X185.352 Y144.599 E55.63415
G1 X185.111 Y145.993 E55.97367
G1 X185.078 Y146.162 E56.015
G1 X185.027 Y146.388 E56.0706
G1 X185.005 Y146.478 E56.09284
G1 X184.944 Y146.718 E56.15227
G1 X184.934 Y146.755 E56.16147
G1 X183.3 Y152.888 E57.68473
G1 X183.289 Y152.93 E57.69515
G1 X183.096 Y153.619 E57.86688
G1 X183.039 Y153.803 E57.91311
G1 X182.974 Y153.993 E57.9613
G1 X182.942 Y154.081 E57.98378
G1 X182.842 Y154.349 E58.05243
G1 X182.833 Y154.373 E58.05858
G1 X180.583 Y160.265 E59.57226
G1 X180.566 Y160.31 E59.5838
G1 X180.302 Y160.973 E59.75507
G1 X180.227 Y161.146 E59.80033
G1 X180.137 Y161.34 E59.85165
G1 X180.101 Y161.415 E59.87162
G1 X179.976 Y161.668 E59.93935
G1 X179.96 Y161.701 E59.94815
G1 X177.082 Y167.37 E61.474
G1 X177.062 Y167.409 E61.48452
G1 X176.766 Y167.974 E61.6376
G1 X176.677 Y168.133 E61.68133
G1 X176.557 Y168.335 E61.73772
G1 X176.502 Y168.423 E61.76263
G1 X176.348 Y168.665 E61.83147
G1 X172.893 Y174.003 E63.35752
G1 X172.866 Y174.044 E63.3693
G1 X172.484 Y174.616 E63.53438
G1 X172.349 Y174.805 E63.59013
G1 X172.055 Y175.186 E63.70563
G1 X172.009 Y175.245 E63.72358
G1 X168.036 Y180.167 E65.24168
G1 X168.003 Y180.206 E65.25394
G1 X167.556 Y180.743 E65.42163
G1 X167.435 Y180.881 E65.46568
G1 X166.527 Y181.859 E65.78596
G1 X166.494 Y181.894 E65.79751
G1 X166.111 Y182.295 E65.93059
G1 X164.278 Y184.329 E66.58773
G1 X162.503 Y186.415 E67.24508
G1 X160.808 Y188.524 E67.89446
G1 X159.134 Y190.732 E68.55946
G1 X157.549 Y192.95 E69.21373
G1 X156.045 Y195.188 E69.86087
G1 X155.701 Y195.739 E70.01676
G1 X155.664 Y195.797 E70.03327
G1 X154.905 Y196.961 E70.36678
G1 X154.483 Y197.486 E70.52844
G1 X154.155 Y197.82 E70.64078
G1 X153.762 Y198.163 E70.76598
G1 X153.493 Y198.345 E70.84392
G1 X153.17 Y198.541 E70.9346
G1 X152.705 Y198.776 E71.05964
G1 X152.389 Y198.889 E71.14019
G1 X152.134 Y198.966 E71.20411
G1 X152.021 Y198.998 E71.2323
G1 X151.802 Y199.056 E71.28667
G1 X151.329 Y199.146 E71.40223
G1 X151.023 Y199.182 E71.47618
G1 X150.979 Y199.187 E71.4868
G1 X148.747 Y199.42 E72.0254
G1 X146.071 Y199.776 E72.67329
G1 X143.382 Y200.211 E73.32704
G1 X140.667 Y200.729 E73.9904
G1 X138.055 Y201.305 E74.63234
G1 X134.682 Y202.172 E75.46817
G1 X128.085 Y203.943 E77.10751
G1 X128.042 Y203.954 E77.11817
G1 X127.398 Y204.118 E77.27766
G1 X127.162 Y204.169 E77.33561
G1 X126.59 Y204.272 E77.47509
G1 X126.524 Y204.283 E77.49115
G1 X120.354 Y205.269 E78.99074
G1 X120.308 Y205.276 E79.00191
G1 X119.623 Y205.376 E79.16805
G1 X119.434 Y205.399 E79.21375
G1 X119.176 Y205.422 E79.27591
G1 X119.097 Y205.428 E79.29493
G1 X118.869 Y205.443 E79.34976
G1 X118.829 Y205.445 E79.35938
G1 X112.518 Y205.785 E80.87621
G1 X112.471 Y205.787 E80.8875
G1 X111.749 Y205.816 E81.06092
G1 X111.554 Y205.818 E81.10772
G1 X111.322 Y205.814 E81.16341
G1 X111.243 Y205.812 E81.18238
G1 X110.996 Y205.802 E81.24171
G1 X110.962 Y205.801 E81.24987
G1 X104.559 Y205.476 E82.78857
G1 X104.511 Y205.473 E82.80011
G1 X103.772 Y205.425 E82.97785
G1 X103.528 Y205.4 E83.03671
G1 X103.005 Y205.328 E83.16342
G1 X102.937 Y205.318 E83.17991
G1 X96.719 Y204.333 E84.69084
G1 X96.675 Y204.326 E84.70153
G1 X96 Y204.21 E84.86591
G1 X95.799 Y204.169 E84.91514
G1 X95.603 Y204.123 E84.96346
G1 X95.536 Y204.106 E84.98005
G1 X95.185 Y204.016 E85.06701
G1 X95.149 Y204.007 E85.07592
G1 X86.402 Y201.664 E87.24921
G1 X83.754 Y201.035 E87.90241
G1 X81.029 Y200.468 E88.57042
G1 X78.398 Y200 E89.21177
G1 X75.668 Y199.594 E89.87418
G1 X71.487 Y199.11 E90.88432
G1 X70.976 Y199.011 E91.00924
G1 X70.717 Y198.929 E91.07444
G1 X70.384 Y198.808 E91.15947
G1 X69.909 Y198.593 E91.28461
G1 X69.649 Y198.434 E91.35775
G1 X69.451 Y198.301 E91.41499
G1 X69.347 Y198.229 E91.44535
G1 X69.138 Y198.077 E91.50737
G1 X68.741 Y197.739 E91.63251
G1 X68.557 Y197.54 E91.69756
G1 X68.371 Y197.323 E91.76615
G1 X68.1 Y196.961 E91.87468
G1 X67.517 Y196.063 E92.13163
G1 X65.982 Y193.732 E92.80148
G1 X64.413 Y191.489 E93.45843
G1 X62.805 Y189.321 E94.10625
G1 X61.103 Y187.161 E94.76624
G1 X59.347 Y185.056 E95.42415
G1 X57.551 Y183.023 E96.07519
G1 X56.167 Y181.549 E96.56045
G1 X56.143 Y181.524 E96.56877
G1 X55.639 Y180.976 E96.74746
G1 X55.567 Y180.894 E96.77365
G1 X55.423 Y180.727 E96.82657
G1 X55.379 Y180.676 E96.84274
G1 X55.191 Y180.449 E96.91347
G1 X55.168 Y180.42 E96.92236
G1 X51.197 Y175.516 E98.43679
G1 X51.169 Y175.481 E98.44755
G1 X50.737 Y174.933 E98.61502
G1 X50.591 Y174.733 E98.67445
G1 X50.288 Y174.285 E98.80426
G1 X50.252 Y174.231 E98.81983
G1 X46.859 Y169.004 E100.31544
G1 X46.836 Y168.968 E100.32569
G1 X46.435 Y168.333 E100.50593
G1 X46.334 Y168.163 E100.55339
G1 X46.224 Y167.964 E100.60796
G1 X46.185 Y167.89 E100.62804
G1 X46.074 Y167.677 E100.68568
G1 X46.06 Y167.65 E100.69298
G1 X43.178 Y161.995 E102.21627
G1 X43.155 Y161.95 E102.2284
G1 X42.849 Y161.327 E102.39498
G1 X42.752 Y161.109 E102.45225
G1 X42.571 Y160.664 E102.56755
G1 X42.546 Y160.602 E102.58359
G1 X40.277 Y154.692 E104.10293
G1 X40.259 Y154.643 E104.11546
G1 X40.012 Y153.969 E104.28774
G1 X39.936 Y153.737 E104.34633
G1 X39.798 Y153.256 E104.46643
G1 X39.782 Y153.198 E104.48087
G1 X38.161 Y147.15 E105.98362
G1 X38.148 Y147.1 E105.99602
G1 X37.964 Y146.369 E106.17693
G1 X37.925 Y146.194 E106.21996
G1 X37.881 Y145.97 E106.27475
G1 X37.865 Y145.886 E106.29527
G1 X37.732 Y145.106 E106.48518
G1 X37.345 Y142.899 E107.02294
G1 X36.799 Y140.21 E107.68147
G1 X36.183 Y137.569 E108.33232
G1 X35.48 Y134.896 E108.99566
G1 X34.718 Y132.301 E109.64475
G1 X33.866 Y129.677 E110.30688
G1 X32.789 Y126.676 E111.07209
G1 X32.165 Y125.023 E111.49614
G1 X32 Y124.424 E111.64525
G1 X31.939 Y124.085 E111.72792
G1 X31.886 Y123.567 E111.85289
G1 X31.89 Y123.302 E111.9165
G1 X31.905 Y123.02 E111.98427
G1 X31.967 Y122.529 E112.10305
G1 X32.037 Y122.182 E112.18801
G1 X32.136 Y121.805 E112.28155
G1 X32.717 Y120.014 E112.73344
G1 X33.522 Y117.367 E113.39745
G1 X34.242 Y114.738 E114.05165
G1 X34.897 Y112.051 E114.71541
G1 X35.451 Y109.448 E115.35412
G1 X35.954 Y106.723 E116.01917
G1 X36.373 Y104.023 E116.67493
G1 X36.742 Y101.084 E117.38583
G1 X37.083 Y97.982 E118.13479
G1 X37.089 Y97.931 E118.14711
G1 X37.15 Y97.444 E118.26491
G1 X37.165 Y97.341 E118.28989
G1 X37.325 Y96.319 E118.53816
G1 X37.335 Y96.258 E118.55299
G1 X38.408 Y90.138 E120.0442
G1 X38.417 Y90.089 E120.05615
G1 X38.519 Y89.553 E120.1871
G1 X38.54 Y89.449 E120.21257
G1 X38.773 Y88.404 E120.46952
G1 X38.787 Y88.344 E120.48431
G1 X40.248 Y82.306 E121.97525
G1 X40.26 Y82.261 E121.98643
G1 X40.388 Y81.762 E122.11006
G1 X40.417 Y81.656 E122.13644
G1 X40.701 Y80.681 E122.38016
G1 X40.718 Y80.624 E122.39444
G1 X42.578 Y74.635 E123.89952
G1 X42.593 Y74.588 E123.91136
G1 X42.749 Y74.11 E124.03204
G1 X42.784 Y74.007 E124.05815
G1 X43.134 Y73.041 E124.30473
G1 X43.155 Y72.986 E124.31886
G1 X45.378 Y67.163 E125.81476
G1 X45.396 Y67.115 E125.82706
G1 X45.596 Y66.614 E125.95653
G1 X45.637 Y66.518 E125.98158
G1 X46.048 Y65.574 E126.22869
G1 X46.073 Y65.517 E126.24362
G1 X48.667 Y59.843 E127.74094
G1 X48.686 Y59.803 E127.75157
G1 X48.906 Y59.338 E127.87503
G1 X48.955 Y59.238 E127.90176
G1 X49.442 Y58.29 E128.15754
G1 X49.47 Y58.236 E128.17214
G1 X52.397 Y52.783 E129.65748
G1 X52.419 Y52.743 E129.66844
G1 X53.191 Y51.35 E130.05067
G1 X54.477 Y48.954 E130.7033
G1 X55.712 Y46.484 E131.36607
G1 X56.859 Y44.02 E132.01836
G1 X57.936 Y41.526 E132.67035
G1 X58.963 Y38.951 E133.33569
G1 X59.892 Y36.407 E133.98568
G1 X60.764 Y33.795 E134.64657
G1 X61.326 Y31.971 E135.10464
G1 X61.409 Y31.732 E135.16536
G1 X61.671 Y31.063 E135.3378
G1 X61.898 Y30.594 E135.46285
G10
;MESH:top.stl(1)
G0 F3600 X63.926 Y33.983
G0 X64.999 Y35.037
G0 X66.508 Y35.161
G0 X69.01 Y33.018
G0 X68.577 Y31.609
G0 X74.659 Y32.509
G0 X71.249 Y36.09
G0 X66.37 Y41.998
G0 X62.026 Y48.098
G0 X58.082 Y54.544
G0 X54.58 Y61.285
G0 X51.565 Y68.258
G0 X49.05 Y75.427
G0 X47.046 Y82.753
G0 X45.565 Y90.204
G0 X44.613 Y97.742
G0 X44.197 Y105.322
G0 X44.185 Y128.532
G0 X50.911 Y140.967
G0 X59.83 Y151.847
G0 X70.649 Y160.84
G0 X82.976 Y167.619
G0 X96.364 Y171.94
G0 X110.327 Y173.645
G0 X124.362 Y172.673
G0 X137.957 Y169.06
G0 X150.622 Y162.934
G0 X161.896 Y154.52
G0 X171.371 Y144.122
G0 X178.742 Y132.032
G0 X178.816 Y130.63
G0 X178.816 Y105.55
G0 X178.416 Y97.969
G0 X177.48 Y90.429
G0 X176.014 Y82.974
G0 X174.026 Y75.643
G0 X171.526 Y68.469
G0 X168.525 Y61.489
G0 X165.037 Y54.74
G0 X161.835 Y49.485
G0 X150.83 Y32.323
G0 X150.925 Y32.351
;TYPE:WALL-OUTER
G11
G1 F1800 X151.184 Y32.631 E135.55439
G1 X151.254 Y32.706 E135.57901
G1 X153.359 Y34.975 E136.32182
G1 X158.256 Y40.98 E138.18149
G1 X162.709 Y47.207 E140.01877
G1 X166.797 Y53.757 E141.87182
G1 X170.489 Y60.609 E143.73983
G1 X173.727 Y67.658 E145.60154
G1 X176.508 Y74.896 E147.46247
G1 X178.829 Y82.317 E149.32859
G1 X180.671 Y89.872 E151.1949
G1 X182.026 Y97.513 E153.05735
G1 X182.917 Y105.458 E154.97611
G1 X182.917 Y123.548 E159.31771
G1 X182.917 Y123.86 E159.39259
G1 X183.383 Y124.075 E159.51576
G1 X183.619 Y123.872 E159.59047
G1 X185.098 Y122.604 E160.05802
G1 X185.449 Y122.33 E160.16489
G1 X185.676 Y122.228 E160.22462
G1 X186.057 Y122.158 E160.31759
G1 X186.493 Y122.226 E160.42349
G1 X186.712 Y122.328 E160.48147
G1 X187.023 Y122.583 E160.578
G1 X187.162 Y122.776 E160.63508
G1 X187.306 Y123.153 E160.73193
G1 X187.331 Y123.394 E160.79008
G1 X187.269 Y123.791 E160.88652
G1 X187.174 Y124.011 E160.94403
G1 X186.915 Y124.334 E161.0434
G1 X182.917 Y127.769 E162.30843
G1 X182.917 Y130.386 E162.93651
G1 X182.533 Y137.968 E164.75852
G1 X181.376 Y145.349 E166.5516
G1 X179.45 Y152.579 E168.34731
G1 X176.783 Y159.563 E170.14153
G1 X173.399 Y166.229 E171.93571
G1 X169.338 Y172.504 E173.72957
G1 X164.644 Y178.319 E175.52313
G1 X159.368 Y183.612 E177.31675
G1 X153.572 Y188.32 E179.10888
G1 X150.347 Y190.431 E180.03395
G1 X151.864 Y193.627 E180.88301
G1 X151.972 Y194.026 E180.98222
G1 X151.969 Y194.269 E181.04054
G1 X151.867 Y194.657 E181.13682
G1 X151.745 Y194.866 E181.1949
G1 X151.465 Y195.15 E181.29062
G1 X151.256 Y195.273 E181.34882
G1 X150.871 Y195.381 E181.44479
G1 X150.627 Y195.384 E181.50335
G1 X150.236 Y195.286 E181.6001
G1 X150.026 Y195.172 E181.65744
G1 X149.739 Y194.895 E181.75317
G1 X149.592 Y194.659 E181.8199
G1 X148.426 Y192.215 E182.4698
G1 X148.23 Y191.804 E182.57908
G1 X147.848 Y192.052 E182.6473
G1 X147.21 Y192.467 E182.82997
G1 X140.545 Y195.863 E184.62524
G1 X133.678 Y198.499 E186.39058
G1 X126.46 Y200.445 E188.18475
G1 X119.073 Y201.626 E189.98014
G1 X111.612 Y202.029 E191.77339
G1 X104.039 Y201.645 E193.59325
G1 X96.649 Y200.475 E195.38894
G1 X89.428 Y198.54 E197.18312
G1 X82.455 Y195.863 E198.97573
G1 X75.797 Y192.47 E200.76918
G1 X75.153 Y192.052 E200.95345
G1 X74.771 Y191.805 E201.06262
G1 X74.576 Y192.215 E201.1306
G1 X73.414 Y194.649 E201.77792
G1 X73.137 Y195.038 E201.89253
G1 X72.953 Y195.183 E201.94875
G1 X72.583 Y195.35 E202.04618
G1 X72.347 Y195.385 E202.10344
G1 X71.947 Y195.347 E202.19987
G1 X71.719 Y195.261 E202.25836
G1 X71.393 Y195.03 E202.35425
G1 X71.239 Y194.845 E202.41202
G1 X71.071 Y194.481 E202.50823
